src/assets/img/devices/iphonex.svg

<svg viewBox="0 0 189 334" fill="none" xmlns="http://www.w3.org/2000/svg">
<g id="iphonex">
<mask id="mask0" mask-type="alpha" maskUnits="userSpaceOnUse" x="0" y="0" width="189" height="334">
<path id="mask" fill-rule="evenodd" clip-rule="evenodd" d="M189 0H0V334H189V0ZM58.1739 29.3429V26H44.1988C36.9093 26 31 31.8715 31 39.1143V282.886C31 290.129 36.9093 296 44.1988 296H142.801C150.091 296 156 290.129 156 282.886V39.1143C156 31.8715 150.091 26 142.801 26H128.05V29.3429C128.05 32.8933 125.153 35.7714 121.58 35.7714H64.6439C61.0706 35.7714 58.1739 32.8933 58.1739 29.3429Z" fill="white"/>
</mask>
<g mask="url(#mask0)">
<g id="iphonex_2" filter="url(#filter0_d)">
<g id="shadows">
<g id="Rectangle 5" opacity="0.8" filter="url(#filter1_f)">
<rect width="118.345" height="2.95862" transform="matrix(1 0 0 -1 33.8345 303.014)" fill="url(#paint0_linear)"/>
</g>
<g id="Rectangle 5_2" filter="url(#filter2_f)">
<rect x="22.9862" y="303.908" width="118.345" height="1.18382" fill="url(#paint1_linear)"/>
</g>
<g id="Rectangle 5_3" filter="url(#filter3_f)">
<rect width="118.345" height="1.18382" transform="matrix(-1 0 0 1 162.041 303.908)" fill="url(#paint2_linear)"/>
</g>
<g id="Rectangle 8" opacity="0.05" filter="url(#filter4_f)">
<rect x="33.8345" y="282.303" width="117.359" height="34.9227" rx="17.4613" fill="black"/>
</g>
</g>
<g id="shell">
<g id="Path" filter="url(#filter5_i)">
<path fill-rule="evenodd" clip-rule="evenodd" d="M164.231 116.912V282.948C164.231 294.575 154.806 304 143.179 304H43.8207C32.1941 304 22.7688 294.575 22.7688 282.948V123.557H22V103.11H22.7688V97.487H22V77.0402H22.7688V67.328H22V56.849H22.7688V39.0519C22.7688 27.4253 32.1941 18 43.8207 18L143.179 18C154.806 18 164.231 27.4253 164.231 39.0519V84.1966H165V116.912H164.231Z" fill="url(#paint3_linear)"/>
</g>
<g id="mic" filter="url(#filter6_i)">
<rect x="85.1172" y="27.8621" width="17.1703" height="2.30027" rx="1.15013" fill="black" fill-opacity="0.01"/>
</g>
</g>
</g>
</g>
</g>
<defs>
<filter id="filter0_d" x="0" y="-8" width="187" height="343.226" filterUnits="userSpaceOnUse" color-interpolation-filters="sRGB">
<feFlood flood-opacity="0" result="BackgroundImageFix"/>
<feColorMatrix in="SourceAlpha" type="matrix" values="0 0 0 0 0 0 0 0 0 0 0 0 0 0 0 0 0 0 127 0"/>
<feOffset dy="-4"/>
<feGaussianBlur stdDeviation="11"/>
<feColorMatrix type="matrix" values="0 0 0 0 0 0 0 0 0 0 0 0 0 0 0 0 0 0 0.03 0"/>
<feBlend mode="normal" in2="BackgroundImageFix" result="effect1_dropShadow"/>
<feBlend mode="normal" in="SourceGraphic" in2="effect1_dropShadow" result="shape"/>
</filter>
<filter id="filter1_f" x="27.0391" y="293.26" width="131.936" height="16.5494" filterUnits="userSpaceOnUse" color-interpolation-filters="sRGB">
<feFlood flood-opacity="0" result="BackgroundImageFix"/>
<feBlend mode="normal" in="SourceGraphic" in2="BackgroundImageFix" result="shape"/>
<feGaussianBlur stdDeviation="3.3977" result="effect1_foregroundBlur"/>
</filter>
<filter id="filter2_f" x="16.1908" y="297.113" width="131.936" height="14.7746" filterUnits="userSpaceOnUse" color-interpolation-filters="sRGB">
<feFlood flood-opacity="0" result="BackgroundImageFix"/>
<feBlend mode="normal" in="SourceGraphic" in2="BackgroundImageFix" result="shape"/>
<feGaussianBlur stdDeviation="3.3977" result="effect1_foregroundBlur"/>
</filter>
<filter id="filter3_f" x="36.9012" y="297.113" width="131.936" height="14.7746" filterUnits="userSpaceOnUse" color-interpolation-filters="sRGB">
<feFlood flood-opacity="0" result="BackgroundImageFix"/>
<feBlend mode="normal" in="SourceGraphic" in2="BackgroundImageFix" result="shape"/>
<feGaussianBlur stdDeviation="3.3977" result="effect1_foregroundBlur"/>
</filter>
<filter id="filter4_f" x="17.5248" y="265.994" width="149.978" height="67.5421" filterUnits="userSpaceOnUse" color-interpolation-filters="sRGB">
<feFlood flood-opacity="0" result="BackgroundImageFix"/>
<feBlend mode="normal" in="SourceGraphic" in2="BackgroundImageFix" result="shape"/>
<feGaussianBlur stdDeviation="8.15485" result="effect1_foregroundBlur"/>
</filter>
<filter id="filter5_i" x="22" y="15" width="143" height="289" filterUnits="userSpaceOnUse" color-interpolation-filters="sRGB">
<feFlood flood-opacity="0" result="BackgroundImageFix"/>
<feBlend mode="normal" in="SourceGraphic" in2="BackgroundImageFix" result="shape"/>
<feColorMatrix in="SourceAlpha" type="matrix" values="0 0 0 0 0 0 0 0 0 0 0 0 0 0 0 0 0 0 127 0" result="hardAlpha"/>
<feOffset dy="-3"/>
<feGaussianBlur stdDeviation="6"/>
<feComposite in2="hardAlpha" operator="arithmetic" k2="-1" k3="1"/>
<feColorMatrix type="matrix" values="0 0 0 0 0.464366 0 0 0 0 0.519284 0 0 0 0 0.587931 0 0 0 0.28626 0"/>
<feBlend mode="normal" in2="shape" result="effect1_innerShadow"/>
</filter>
<filter id="filter6_i" x="85.1172" y="27.8621" width="17.1703" height="2.30027" filterUnits="userSpaceOnUse" color-interpolation-filters="sRGB">
<feFlood flood-opacity="0" result="BackgroundImageFix"/>
<feBlend mode="normal" in="SourceGraphic" in2="BackgroundImageFix" result="shape"/>
<feColorMatrix in="SourceAlpha" type="matrix" values="0 0 0 0 0 0 0 0 0 0 0 0 0 0 0 0 0 0 127 0" result="hardAlpha"/>
<feOffset/>
<feGaussianBlur stdDeviation="0.5"/>
<feComposite in2="hardAlpha" operator="arithmetic" k2="-1" k3="1"/>
<feColorMatrix type="matrix" values="0 0 0 0 0.464366 0 0 0 0 0.519284 0 0 0 0 0.587931 0 0 0 0.28626 0"/>
<feBlend mode="normal" in2="shape" result="effect1_innerShadow"/>
</filter>
<linearGradient id="paint0_linear" x1="115.655" y1="0.0336207" x2="0" y2="0.0336207" gradientUnits="userSpaceOnUse">
<stop stop-opacity="0.01"/>
<stop offset="0.142119"/>
<stop offset="0.490956"/>
<stop offset="0.852713"/>
<stop offset="1" stop-opacity="0.01"/>
</linearGradient>
<linearGradient id="paint1_linear" x1="138.641" y1="303.922" x2="22.9862" y2="303.922" gradientUnits="userSpaceOnUse">
<stop stop-color="white" stop-opacity="0.01"/>
<stop offset="0.852713"/>
<stop offset="1" stop-opacity="0.01"/>
</linearGradient>
<linearGradient id="paint2_linear" x1="115.655" y1="0.0134525" x2="0" y2="0.0134525" gradientUnits="userSpaceOnUse">
<stop stop-color="white" stop-opacity="0.01"/>
<stop offset="0.852713"/>
<stop offset="1" stop-opacity="0.01"/>
</linearGradient>
<linearGradient id="paint3_linear" x1="-2.13698" y1="43.2503" x2="90.2272" y2="300.721" gradientUnits="userSpaceOnUse">
<stop stop-color="#F4F7FA"/>
<stop offset="1" stop-color="#ECEEF1"/>
</linearGradient>
</defs>
</svg>

<svg viewBox="0 0 189 334" fill="none" xmlns="http://www.w3.org/2000/svg"><mask id="a" maskUnits="userSpaceOnUse" x="0" y="0" width="189" height="334"><path fill-rule="evenodd" clip-rule="evenodd" d="M189 0H0v334h189V0zM58.174 29.343V26H44.199C36.909 26 31 31.872 31 39.114v243.772C31 290.129 36.91 296 44.199 296H142.8c7.29 0 13.199-5.871 13.199-13.114V39.114C156 31.872 150.091 26 142.801 26H128.05v3.343c0 3.55-2.897 6.428-6.47 6.428H64.644c-3.573 0-6.47-2.878-6.47-6.428z" fill="#fff"/></mask><g filter="url(#filter0_d)" mask="url(#a)"><g opacity=".8" filter="url(#filter1_f)"><path transform="matrix(1 0 0 -1 33.834 303.014)" fill="url(#paint0_linear)" d="M0 0h118.345v2.959H0z"/></g><g filter="url(#filter2_f)"><path fill="url(#paint1_linear)" d="M22.986 303.908h118.345v1.184H22.986z"/></g><g filter="url(#filter3_f)"><path transform="matrix(-1 0 0 1 162.041 303.908)" fill="url(#paint2_linear)" d="M0 0h118.345v1.184H0z"/></g><g opacity=".05" filter="url(#filter4_f)"><rect x="33.834" y="282.303" width="117.359" height="34.923" rx="17.461" fill="#000"/></g><g><g filter="url(#filter5_i)"><path fill-rule="evenodd" clip-rule="evenodd" d="M164.231 116.912v166.036c0 11.627-9.425 21.052-21.052 21.052H43.821c-11.627 0-21.052-9.425-21.052-21.052V123.557H22V103.11h.769v-5.623H22V77.04h.769v-9.712H22V56.849h.769V39.052C22.769 27.425 32.194 18 43.82 18h99.358c11.627 0 21.052 9.425 21.052 21.052v45.145H165v32.715h-.769z" fill="url(#paint3_linear)"/></g><g filter="url(#filter6_i)"><rect x="85.117" y="27.862" width="17.17" height="2.3" rx="1.15" fill="#000" fill-opacity=".01"/></g></g></g><defs><filter id="filter5_i" x="22" y="15" width="143" height="289" filterUnits="userSpaceOnUse" color-interpolation-filters="sRGB"><feFlood flood-opacity="0" result="BackgroundImageFix"/><feBlend in="SourceGraphic" in2="BackgroundImageFix" result="shape"/><feColorMatrix in="SourceAlpha" values="0 0 0 0 0 0 0 0 0 0 0 0 0 0 0 0 0 0 127 0" result="hardAlpha"/><feOffset dy="-3"/><feGaussianBlur stdDeviation="6"/><feComposite in2="hardAlpha" operator="arithmetic" k2="-1" k3="1"/><feColorMatrix values="0 0 0 0 0.464366 0 0 0 0 0.519284 0 0 0 0 0.587931 0 0 0 0.28626 0"/><feBlend in2="shape" result="effect1_innerShadow"/></filter><filter id="filter0_d" x="0" y="-8" width="187" height="343.226" filterUnits="userSpaceOnUse" color-interpolation-filters="sRGB"><feFlood flood-opacity="0" result="BackgroundImageFix"/><feColorMatrix in="SourceAlpha" values="0 0 0 0 0 0 0 0 0 0 0 0 0 0 0 0 0 0 127 0"/><feOffset dy="-4"/><feGaussianBlur stdDeviation="11"/><feColorMatrix values="0 0 0 0 0 0 0 0 0 0 0 0 0 0 0 0 0 0 0.03 0"/><feBlend in2="BackgroundImageFix" result="effect1_dropShadow"/><feBlend in="SourceGraphic" in2="effect1_dropShadow" result="shape"/></filter><filter id="filter2_f" x="16.191" y="297.113" width="131.936" height="14.775" filterUnits="userSpaceOnUse" color-interpolation-filters="sRGB"><feFlood flood-opacity="0" result="BackgroundImageFix"/><feBlend in="SourceGraphic" in2="BackgroundImageFix" result="shape"/><feGaussianBlur stdDeviation="3.398" result="effect1_foregroundBlur"/></filter><filter id="filter3_f" x="36.901" y="297.113" width="131.936" height="14.775" filterUnits="userSpaceOnUse" color-interpolation-filters="sRGB"><feFlood flood-opacity="0" result="BackgroundImageFix"/><feBlend in="SourceGraphic" in2="BackgroundImageFix" result="shape"/><feGaussianBlur stdDeviation="3.398" result="effect1_foregroundBlur"/></filter><filter id="filter4_f" x="17.525" y="265.994" width="149.978" height="67.542" filterUnits="userSpaceOnUse" color-interpolation-filters="sRGB"><feFlood flood-opacity="0" result="BackgroundImageFix"/><feBlend in="SourceGraphic" in2="BackgroundImageFix" result="shape"/><feGaussianBlur stdDeviation="8.155" result="effect1_foregroundBlur"/></filter><filter id="filter1_f" x="27.039" y="293.26" width="131.936" height="16.549" filterUnits="userSpaceOnUse" color-interpolation-filters="sRGB"><feFlood flood-opacity="0" result="BackgroundImageFix"/><feBlend in="SourceGraphic" in2="BackgroundImageFix" result="shape"/><feGaussianBlur stdDeviation="3.398" result="effect1_foregroundBlur"/></filter><filter id="filter6_i" x="85.117" y="27.862" width="17.17" height="2.3" filterUnits="userSpaceOnUse" color-interpolation-filters="sRGB"><feFlood flood-opacity="0" result="BackgroundImageFix"/><feBlend in="SourceGraphic" in2="BackgroundImageFix" result="shape"/><feColorMatrix in="SourceAlpha" values="0 0 0 0 0 0 0 0 0 0 0 0 0 0 0 0 0 0 127 0" result="hardAlpha"/><feOffset/><feGaussianBlur stdDeviation=".5"/><feComposite in2="hardAlpha" operator="arithmetic" k2="-1" k3="1"/><feColorMatrix values="0 0 0 0 0.464366 0 0 0 0 0.519284 0 0 0 0 0.587931 0 0 0 0.28626 0"/><feBlend in2="shape" result="effect1_innerShadow"/></filter><linearGradient id="paint0_linear" x1="115.655" y1=".034" x2="0" y2=".034" gradientUnits="userSpaceOnUse"><stop stop-opacity=".01"/><stop offset=".142"/><stop offset=".491"/><stop offset=".853"/><stop offset="1" stop-opacity=".01"/></linearGradient><linearGradient id="paint1_linear" x1="138.641" y1="303.922" x2="22.986" y2="303.922" gradientUnits="userSpaceOnUse"><stop stop-color="#fff" stop-opacity=".01"/><stop offset=".853"/><stop offset="1" stop-opacity=".01"/></linearGradient><linearGradient id="paint2_linear" x1="115.655" y1=".013" x2="0" y2=".013" gradientUnits="userSpaceOnUse"><stop stop-color="#fff" stop-opacity=".01"/><stop offset=".853"/><stop offset="1" stop-opacity=".01"/></linearGradient><linearGradient id="paint3_linear" x1="-2.137" y1="43.25" x2="90.227" y2="300.721" gradientUnits="userSpaceOnUse"><stop stop-color="#F4F7FA"/><stop offset="1" stop-color="#ECEEF1"/></linearGradient></defs></svg>
